X: 23967
T: Lochiel's Welcome To Glasgow
R: jig
M: 6/8
K: Amixolydian
|:e|A>AA A>Bc|a2e fec|B>BB B>ce|f>ea f>ec|
A>AA A>Bc|a2e fec|e>fe e>ca|A>BA A2:|
|:d|c<ee c<ee|f>df fed|c<ee c<ee|A>Bc c>BA|
c<ee c<ee|f>df f>ec|e>fe e>ca|A>BA A2:|

